assets/icons/24px/stroke/share-24px.svg

<svg width="24" height="24" viewBox="0 0 24 24" fill="none" xmlns="http://www.w3.org/2000/svg">
<path fill-rule="evenodd" clip-rule="evenodd" d="M17.964 10.0277C17.7738 10.0021 17.4997 9.99996 17 9.99995L16 9.99995C15.4477 9.99994 15 9.55222 15 8.99994C15 8.44765 15.4477 7.99994 16 7.99995L17 7.99995C17.0182 7.99995 17.0363 7.99995 17.0544 7.99995C17.4785 7.99987 17.8906 7.99979 18.2305 8.04549C18.6137 8.09701 19.051 8.22254 19.4142 8.58575C19.7774 8.94897 19.903 9.38624 19.9545 9.76944C20.0002 10.1094 20.0001 10.5215 20 10.9455C20 10.9637 20 10.9818 20 11V19C20 19.0181 20 19.0363 20 19.0544C20.0001 19.4784 20.0002 19.8906 19.9545 20.2305C19.903 20.6137 19.7774 21.051 19.4142 21.4142C19.051 21.7774 18.6137 21.9029 18.2305 21.9544C17.8906 22.0001 17.4785 22.0001 17.0544 22C17.0363 22 17.0182 22 17 22H7.00001C6.98186 22 6.96372 22 6.9456 22C6.52153 22.0001 6.10941 22.0001 5.76949 21.9544C5.38629 21.9029 4.94902 21.7774 4.5858 21.4142C4.22259 21.051 4.09706 20.6137 4.04554 20.2305C3.99984 19.8906 3.99992 19.4784 4.00001 19.0544C4.00001 19.0363 4.00001 19.0181 4.00001 19V11C4.00001 10.9818 4.00001 10.9637 4.00001 10.9456C3.99992 10.5215 3.99984 10.1093 4.04554 9.76943C4.09706 9.38623 4.22259 8.94895 4.58581 8.58573C4.94902 8.22252 5.3863 8.097 5.76951 8.04548C6.10943 7.99978 6.52155 7.99987 6.94563 7.99995C6.96374 7.99996 6.98188 7.99996 7.00004 7.99996L8.00002 7.99997C8.55231 7.99997 9.00002 8.44769 9.00001 8.99997C9.00001 9.55226 8.55229 9.99997 8.00001 9.99997L7.00002 9.99996C6.50034 9.99996 6.22618 10.0021 6.03599 10.0276C6.03351 10.028 6.03109 10.0283 6.02871 10.0286C6.02838 10.031 6.02804 10.0335 6.02771 10.0359C6.00214 10.2261 6.00001 10.5003 6.00001 11V19C6.00001 19.4996 6.00214 19.7738 6.02771 19.964C6.02804 19.9665 6.02837 19.9689 6.02871 19.9713C6.03108 19.9716 6.03351 19.9719 6.03599 19.9723C6.22618 19.9978 6.50034 20 7.00001 20H17C17.4997 20 17.7738 19.9978 17.964 19.9723C17.9665 19.9719 17.9689 19.9716 17.9713 19.9713C17.9717 19.9689 17.972 19.9665 17.9723 19.964C17.9979 19.7738 18 19.4996 18 19V11C18 10.5003 17.9979 10.2261 17.9723 10.0359C17.972 10.0335 17.9717 10.031 17.9713 10.0287C17.9689 10.0283 17.9665 10.028 17.964 10.0277Z" fill="white"/>
<path fill-rule="evenodd" clip-rule="evenodd" d="M8.79289 6.20711C8.40237 5.81658 8.40237 5.18342 8.79289 4.79289L11.2929 2.29289C11.4804 2.10536 11.7348 2 12 2C12.2652 2 12.5196 2.10536 12.7071 2.29289L15.2071 4.79289C15.5976 5.18342 15.5976 5.81658 15.2071 6.20711C14.8166 6.59763 14.1834 6.59763 13.7929 6.20711L13 5.41421V14C13 14.5523 12.5523 15 12 15C11.4477 15 11 14.5523 11 14V5.41422L10.2071 6.20711C9.81658 6.59763 9.18342 6.59763 8.79289 6.20711Z" fill="white"/>
</svg>

<svg width="24" height="24" fill="none" xmlns="http://www.w3.org/2000/svg"><path fill-rule="evenodd" clip-rule="evenodd" d="M17.964 10.028C17.774 10.002 17.5 10 17 10h-1a1 1 0 0 1 0-2h1.054c.425 0 .837 0 1.177.045.383.052.82.178 1.183.54.363.364.489.801.54 1.184.046.34.046.752.046 1.176v8.109c0 .424 0 .837-.046 1.177-.051.383-.177.82-.54 1.183-.363.363-.8.489-1.184.54-.34.046-.752.046-1.176.046H6.946c-.424 0-.837 0-1.177-.046-.383-.051-.82-.177-1.183-.54-.363-.363-.489-.8-.54-1.184C4 19.89 4 19.479 4 19.055V11v-.054c0-.425 0-.837.046-1.177.051-.383.177-.82.54-1.183.363-.363.8-.489 1.184-.54C6.11 8 6.522 8 6.946 8H8a1 1 0 1 1 0 2H7c-.5 0-.774.002-.964.028h-.007l-.001.008C6.002 10.226 6 10.5 6 11v8c0 .5.002.774.028.964v.007l.008.001c.19.026.464.028.964.028h10c.5 0 .774-.002.964-.028h.007l.001-.008c.026-.19.028-.464.028-.964v-8c0-.5-.002-.774-.028-.964v-.007a.16.16 0 0 0-.008-.001z" fill="#fff"/><path fill-rule="evenodd" clip-rule="evenodd" d="M8.793 6.207a1 1 0 0 1 0-1.414l2.5-2.5a1 1 0 0 1 1.414 0l2.5 2.5a1 1 0 0 1-1.414 1.414L13 5.414V14a1 1 0 1 1-2 0V5.414l-.793.793a1 1 0 0 1-1.414 0z" fill="#fff"/></svg>
